packages/core/src/svgs/tokens/mono/TTK.svg

<svg width="24" height="24" viewBox="0 0 24 24" fill="none" xmlns="http://www.w3.org/2000/svg">
<path d="M3.76996 17.6761C2.53524 15.8881 1.91998 13.7451 2.01824 11.5745C2.55464 11.9175 3.14778 12.1623 3.76996 12.2976V17.6761Z" fill="white"/>
<path d="M9.06076 21.556C8.08735 21.2576 7.1655 20.8115 6.32739 20.2334H8.47294V20.8213H9.06076V21.556Z" fill="white"/>
<path d="M10.2368 21.8441V20.8213H10.5307V20.2335H10.8245V12.0039H10.5307V11.4161H10.2368V10.2405H13.7637V11.4161H13.4698V12.0039H13.1759V20.2335H13.4698V20.8213H13.7637V21.8441C12.5973 22.0521 11.4032 22.0521 10.2368 21.8441Z" fill="white"/>
<path d="M17.6726 20.2334C16.8438 20.8036 15.921 21.2562 14.9392 21.556V20.8213H15.5271V20.2334H17.6726Z" fill="white"/>
<path d="M18.4663 12.5916H14.9392V13.7671H15.2331V14.355H15.5271V19.6454H17.8784V14.355H18.1723V13.7671H18.4663V12.5916Z" fill="white"/>
<path d="M9.06087 12.5916H5.53394V13.7671H5.82784V14.355H6.12176V19.6454H8.47304V14.355H8.76696V13.7671H9.06087V12.5916Z" fill="white"/>
<path d="M19.6416 18.4405C21.326 16.4469 22.1598 13.8715 21.9636 11.269H21.9518C21.9217 11.3199 21.8772 11.3607 21.8237 11.3859C21.7702 11.411 21.7104 11.4195 21.6519 11.4102C21.0642 11.6805 20.2882 12.0038 19.6416 12.0038V18.4405Z" fill="white"/>
<path d="M21.9342 10.9457C21.8996 10.8981 21.8515 10.862 21.7962 10.8422C21.7409 10.8223 21.6808 10.8194 21.6239 10.8339C21.5668 10.8485 21.5155 10.8799 21.4766 10.9239C21.4376 10.9679 21.4127 11.0225 21.4051 11.081C19.771 10.9164 18.6423 10.2991 18.2779 9.63489C18.3433 9.61116 18.3983 9.56494 18.4329 9.50445C18.4675 9.4441 18.4795 9.37333 18.4668 9.30488C18.4542 9.23643 18.4175 9.17471 18.3635 9.13072C18.3096 9.08672 18.2417 9.06331 18.1722 9.06466C17.8782 9.06466 17.8782 9.35851 17.8782 9.35851V9.65244H14.9391V8.77075C16.3499 8.77075 17.4844 8.18292 17.8782 7.88901C16.1971 7.94779 15.4094 7.28943 15.1036 6.68985C15.2084 6.65928 15.3027 6.60014 15.3758 6.51904C15.4489 6.43795 15.498 6.3381 15.5175 6.23069C15.5369 6.12329 15.5262 6.01256 15.4863 5.91093C15.4465 5.80931 15.3792 5.72079 15.2918 5.65528C15.2045 5.58978 15.1006 5.5499 14.9919 5.54009C14.8832 5.53029 14.7739 5.55096 14.6763 5.59977C14.5786 5.6486 14.4964 5.72364 14.4391 5.81649C14.3816 5.90936 14.3513 6.01638 14.3513 6.12554H9.6487C9.6487 6.01638 9.61825 5.90936 9.56092 5.81649C9.50345 5.72364 9.42143 5.6486 9.32377 5.59977C9.22611 5.55096 9.11681 5.53029 9.00809 5.54009C8.89936 5.5499 8.7955 5.58978 8.70817 5.65528C8.62085 5.72079 8.55347 5.80931 8.51361 5.91093C8.47377 6.01256 8.463 6.12329 8.48253 6.23069C8.50205 6.3381 8.55111 6.43795 8.62419 6.51904C8.69726 6.60014 8.79148 6.65928 8.89627 6.68985C8.77872 6.93674 8.62588 7.13659 8.43778 7.29531L3.48242 6.77802C3.61762 6.55466 3.76458 6.33715 3.91741 6.12554H7.2974L4.30537 5.62589C5.25866 4.4708 6.4598 3.54518 7.81969 2.91771C9.17956 2.29024 10.6633 1.97703 12.1608 2.00131C13.6583 2.02559 15.1309 2.38674 16.4697 3.05797C17.8087 3.7292 18.9791 4.69326 19.8945 5.87866L16.1148 6.41945L20.4646 6.68985C20.5881 6.88971 20.7056 7.09545 20.8174 7.30118H17.2904L21.0878 7.84199C21.5394 8.82514 21.8273 9.87546 21.9401 10.9516L21.9342 10.9457Z" fill="white"/>
<path d="M2.30129 10.8283C2.25567 10.8283 2.21067 10.8388 2.16985 10.8593C2.12905 10.8797 2.09354 10.9093 2.06616 10.9458C2.18373 9.74663 2.52467 8.61212 3.04195 7.57168L8.43818 7.29541C7.76218 7.87148 6.72173 7.95376 6.12216 7.8891C6.35729 8.5945 7.78569 8.77084 8.47344 8.77084V9.65254H6.12216V9.35861C6.12216 9.30059 6.10491 9.24371 6.07261 9.19538C6.04033 9.14704 5.99442 9.10938 5.94071 9.08713C5.88701 9.06488 5.82791 9.05905 5.77091 9.0704C5.71389 9.08174 5.66152 9.10973 5.62041 9.15084C5.57931 9.19195 5.55131 9.24431 5.53997 9.30128C5.52863 9.35834 5.53446 9.41745 5.5567 9.47108C5.57895 9.52485 5.61662 9.57079 5.66495 9.60303C5.71329 9.6354 5.77011 9.65254 5.82824 9.65254C5.14637 10.8458 3.7591 11.081 2.59521 11.1222C2.59521 11.0442 2.56424 10.9694 2.50913 10.9143C2.45401 10.8591 2.37924 10.8283 2.30129 10.8283Z" fill="white"/>
</svg>

<svg xmlns="http://www.w3.org/2000/svg" width="24" height="24" fill="none" viewBox="0 0 24 24">
    <path fill="#fff" d="M3.77 17.676a9.95 9.95 0 0 1-1.752-6.101 5.4 5.4 0 0 0 1.752.723zm5.29 3.88a10 10 0 0 1-2.733-1.323h2.146v.588h.588zm1.177.288v-1.023h.294v-.588h.293v-8.23h-.293v-.587h-.294v-1.175h3.527v1.175h-.294v.588h-.294v8.23h.294v.587h.294v1.023c-1.167.208-2.36.208-3.527 0m7.436-1.611a10 10 0 0 1-2.734 1.323v-.735h.588v-.588zm.793-7.641H14.94v1.175h.294v.588h.294v5.29h2.351v-5.29h.294v-.588h.294zm-9.406 0H5.535v1.175h.294v.588h.294v5.29h2.351v-5.29h.294v-.588h.294zm10.582 5.848a9.95 9.95 0 0 0 2.322-7.171h-.012a.295.295 0 0 1-.3.141c-.588.27-1.364.594-2.01.594zm2.292-7.494a.293.293 0 0 0-.457-.022.3.3 0 0 0-.072.157c-1.634-.165-2.763-.782-3.127-1.446a.294.294 0 0 0-.106-.57c-.294 0-.294.294-.294.294v.293H14.94v-.881c1.41 0 2.545-.588 2.94-.882-1.682.059-2.47-.6-2.775-1.2a.588.588 0 1 0-.753-.563H9.65a.588.588 0 1 0-.753.564q-.176.37-.458.605l-4.956-.517q.205-.334.435-.652h3.38l-2.992-.5a9.975 9.975 0 0 1 15.59.253l-3.78.54 4.35.27q.184.302.352.612H17.29l3.798.541a10 10 0 0 1 .852 3.11z"/>
    <path fill="#fff" d="M2.301 10.828a.3.3 0 0 0-.235.118c.118-1.2.459-2.334.976-3.374l5.396-.277c-.676.576-1.716.659-2.316.594.235.705 1.664.882 2.351.882v.882h-2.35v-.294a.294.294 0 1 0-.295.294c-.682 1.193-2.069 1.428-3.233 1.47a.294.294 0 0 0-.294-.295"/>
</svg>
